<?xml version="1.0" encoding="UTF-8"?>
<map version="1.10" tiledversion="1.12.2" orientation="orthogonal" renderorder="right-down" width="30" height="20" tilewidth="32" tileheight="32" infinite="0" nextlayerid="3" nextobjectid="9">
 <tileset firstgid="1" source="../../../image/map/sakurayama_tileset.tsx"/>
 <layer id="1" name="タイルレイヤー1" width="30" height="20">
  <data encoding="csv">
20,20,20,20,20,20,1,1,1,1,1,1,1,1,1,9,9,9,9,4,4,4,4,4,4,5,5,5,5,5,
20,20,20,20,20,20,1,1,1,1,1,1,1,1,1,9,9,9,9,4,4,4,4,4,4,5,5,5,5,5,
20,20,20,20,20,20,1,1,1,1,1,1,1,1,1,9,9,9,9,4,4,4,4,4,4,5,5,5,5,5,
20,20,20,20,20,20,1,1,1,1,1,1,1,1,1,9,9,9,9,4,4,4,4,4,5,5,6,6,6,6,
20,20,20,20,20,1,1,1,1,1,1,1,1,1,1,9,9,9,9,4,4,4,4,4,5,5,6,6,6,6,
20,20,20,20,1,1,1,1,1,1,1,1,1,1,1,9,9,9,9,4,4,4,4,4,5,5,6,6,7,7,
20,20,20,1,1,1,1,1,1,1,1,1,1,1,1,9,9,9,9,4,4,4,4,5,5,6,6,7,7,7,
9,9,9,9,9,9,9,9,9,9,9,9,9,9,9,9,9,9,9,4,4,4,4,5,5,6,6,7,7,7,
9,9,9,9,9,9,9,9,9,9,9,9,9,9,9,9,9,9,9,4,4,4,4,5,5,6,6,7,7,7,
8,8,8,8,8,8,8,8,8,8,8,8,8,8,8,9,9,9,9,4,4,4,4,5,5,6,6,7,7,7,
9,9,9,9,9,9,9,9,9,9,9,9,9,9,9,9,9,9,9,4,4,4,4,5,5,6,6,7,7,7,
9,9,9,9,9,9,9,9,9,9,9,9,9,9,9,9,9,9,9,4,4,4,5,5,6,6,7,7,7,7,
1,1,1,1,1,1,1,1,1,1,1,1,1,1,1,9,9,9,9,4,4,4,5,5,6,6,7,7,7,7,
1,1,1,1,1,1,1,1,1,1,1,1,1,1,1,9,9,9,9,4,4,4,5,5,6,6,7,7,7,7,
1,1,1,1,1,1,1,1,1,1,1,1,1,1,1,9,9,9,9,4,4,4,5,5,6,6,7,7,7,7,
1,1,1,1,1,1,1,1,1,1,1,1,1,1,1,9,9,9,9,4,4,4,5,5,6,6,7,7,7,7,
1,1,1,1,1,1,1,1,1,1,1,1,1,1,1,9,9,9,9,4,4,4,5,5,6,6,7,7,7,7,
1,1,1,1,1,1,1,1,1,1,1,1,1,1,1,9,9,9,9,4,4,4,5,5,6,6,7,7,7,7,
1,1,1,1,1,1,1,1,1,1,1,1,1,1,1,9,9,9,9,4,4,4,5,5,6,6,7,7,7,7,
1,1,1,1,1,1,1,1,1,1,1,1,1,1,1,9,9,9,9,4,4,4,5,5,6,6,7,7,7,7
</data>
 </layer>
 <objectgroup id="2" name="collision">
  <object id="3" x="835.088" y="356.491" width="123.509" height="283.509"/>
  <object id="5" x="861.754" y="196.491" width="95.4386" height="161.404"/>
  <object id="7" x="896.842" y="161.404" width="61.7544" height="33.6842"/>
 </objectgroup>
</map>
