<?xml version="1.0" encoding="UTF-8"?>
<map version="1.10" tiledversion="1.12.2" orientation="orthogonal" renderorder="right-down" width="30" height="20" tilewidth="32" tileheight="32" infinite="0" nextlayerid="2" nextobjectid="1">
 <tileset firstgid="1" source="../../image/map/sakurayama_tileset.tsx"/>
 <layer id="1" name="タイルレイヤー1" width="30" height="20">
  <data encoding="csv">
20,20,20,20,20,20,1,1,1,1,1,1,1,1,1,9,9,9,9,4,4,4,4,4,4,5,5,5,5,5,
20,20,20,20,20,20,1,1,1,1,1,1,1,1,1,9,9,9,9,4,4,4,4,4,4,5,5,5,5,5,
20,20,20,20,20,20,1,1,1,1,1,1,1,1,1,9,9,9,9,4,4,4,4,4,4,5,5,5,5,5,
20,20,20,20,20,20,1,1,1,1,1,1,1,1,1,9,9,9,9,4,4,4,4,4,5,5,6,6,6,6,
20,20,20,20,20,1,1,1,1,1,1,1,1,1,1,9,9,9,9,4,4,4,4,4,5,5,6,6,6,6,
20,20,20,20,1,1,1,1,1,1,1,1,1,1,1,9,9,9,9,4,4,4,4,4,5,5,6,6,7,7,
20,20,20,1,1,1,1,1,1,1,1,1,1,1,1,9,9,9,9,4,4,4,4,5,5,6,6,7,7,7,
9,9,9,9,9,9,9,9,9,9,9,9,9,9,9,9,9,9,9,4,4,4,4,5,5,6,6,7,7,7,
9,9,9,9,9,9,9,9,9,9,9,9,9,9,9,9,9,9,9,4,4,4,4,5,5,6,6,7,7,7,
8,8,8,8,8,8,8,8,8,8,8,8,8,8,8,9,9,9,9,4,4,4,4,5,5,6,6,7,7,7,
9,9,9,9,9,9,9,9,9,9,9,9,9,9,9,9,9,9,9,4,4,4,4,5,5,6,6,7,7,7,
9,9,9,9,9,9,9,9,9,9,9,9,9,9,9,9,9,9,9,4,4,4,5,5,6,6,7,7,7,7,
1,1,1,1,1,1,1,1,1,1,1,1,1,1,1,9,9,9,9,4,4,4,5,5,6,6,7,7,7,7,
1,1,1,1,1,1,1,1,1,1,1,1,1,1,1,9,9,9,9,4,4,4,5,5,6,6,7,7,7,7,
1,1,1,1,1,1,1,1,1,1,1,1,1,1,1,9,9,9,9,4,4,4,5,5,6,6,7,7,7,7,
1,1,1,1,1,1,1,1,1,1,1,1,1,1,1,9,9,9,9,4,4,4,5,5,6,6,7,7,7,7,
1,1,1,1,1,1,1,1,1,1,1,1,1,1,1,9,9,9,9,4,4,4,5,5,6,6,7,7,7,7,
1,1,1,1,1,1,1,1,1,1,1,1,1,1,1,9,9,9,9,4,4,4,5,5,6,6,7,7,7,7,
1,1,1,1,1,1,1,1,1,1,1,1,1,1,1,9,9,9,9,4,4,4,5,5,6,6,7,7,7,7,
1,1,1,1,1,1,1,1,1,1,1,1,1,1,1,9,9,9,9,4,4,4,5,5,6,6,7,7,7,7
</data>
 </layer>
</map>
